X: 253
T: Prince Ferdinand's March
B: C. & S. Thompson, "The Compleat Tutor for the Fife" c.1760 p.25 #3
S: http://imslp.org/wiki/The_Compleat_Tutor_for_the_Fife_(Anonymous)
Z: 2014 John Chambers <jc:trillian.mit.edu>
M: C
L: 1/8
K: G
% - - - - - - - - - - - - - - - - - - - - - - - - -
|:\
G2G>G G>Bd2 | A2A>B A>Bc2 | B2G>A BGd2 | D2D>D D4 |\
A2AB cABG | A2d^c d4 | A2AB cABG | A2d^c d4 |
GBAG FAGF | EGFE D4 | GBAc Bdgc | B2A2 G4 ::\
d2d>d d3g | e2c>c c4 | e2e>e e3a | f2d>d d4 |
G2G>F {F2}E4 | A2A>G {G2}F4 | B2A>G Ad^cd | F2E2 D4 |\
G2G>G GBd2 | A2A>A Ace2 | G2BA Ggfg | B2A2 G4 :|
% - - - - - - - - - - - - - - - - - - - - - - - - -
